svg/chat_processing_outline.svg

<svg xmlns="http://www.w3.org/2000/svg" viewBox="0 0 24 24"><path d="M12 3C6.5 3 2 6.58 2 11a7.22 7.22 0 0 0 2.75 5.5c0 .6-.42 2.17-2.75 4.5 2.37-.11 4.64-1 6.47-2.5 1.14.33 2.34.5 3.53.5 5.5 0 10-3.58 10-8s-4.5-8-10-8m0 14c-4.42 0-8-2.69-8-6s3.58-6 8-6 8 2.69 8 6-3.58 6-8 6m5-5v-2h-2v2zm-4 0v-2h-2v2zm-4 0v-2H7v2z"/></svg>

<?xml version="1.0" encoding="UTF-8"?><!DOCTYPE svg PUBLIC "-//W3C//DTD SVG 1.1//EN" "http://www.w3.org/Graphics/SVG/1.1/DTD/svg11.dtd"><svg xmlns="http://www.w3.org/2000/svg" xmlns:xlink="http://www.w3.org/1999/xlink" version="1.1" id="mdi-chat-processing-outline" width="24" height="24" viewBox="0 0 24 24"><path d="M12 3C6.5 3 2 6.58 2 11C2.05 13.15 3.06 15.17 4.75 16.5C4.75 17.1 4.33 18.67 2 21C4.37 20.89 6.64 20 8.47 18.5C9.61 18.83 10.81 19 12 19C17.5 19 22 15.42 22 11S17.5 3 12 3M12 17C7.58 17 4 14.31 4 11S7.58 5 12 5 20 7.69 20 11 16.42 17 12 17M17 12V10H15V12H17M13 12V10H11V12H13M9 12V10H7V12H9Z" /></svg>
